plasma/desktoptheme/Materia-Color/icons/plasmavault.svg

<svg xmlns="http://www.w3.org/2000/svg" width="32" height="32" version="1.1">
 <defs id="materia">
  <style id="current-color-scheme" type="text/css">
   .ColorScheme-Background {color:#181818; } .ColorScheme-ButtonBackground { color:#343434; } .ColorScheme-Highlight { color:#4285f4; } .ColorScheme-Text { color:#dfdfdf; } .ColorScheme-ViewBackground { color:#242424; } .ColorScheme-NegativeText { color:#f44336; } .ColorScheme-PositiveText { color:#4caf50; } .ColorScheme-NeutralText { color:#ff9800; }
  </style>
 </defs>
 <g id="22-22-plasmavault" transform="translate(32,10)">
  <rect style="opacity:0.001" width="22" height="22" x="0" y="0"/>
  <path style="fill:currentColor" class="ColorScheme-Text" d="m 4.1425782,3.0000002 c 0,0 -1.142578,0.04269 -1.142578,1.1855469 V 16.857422 c 0,0 -2.79e-4,1.142578 1.142578,1.142578 H 17.857422 C 17.857422,18 19,18.000279 19,16.857422 V 6.1718752 c 0,-1.1428573 -1.142578,-1.171875 -1.142578,-1.171875 h -5.714844 l -2.2851558,-2 z m 6.8574218,3 c 1.6,0 3,0.9993514 3,2.9160156 V 10 h 0.333984 C 14.657204,10 15,10.366005 15,10.761719 v 4.523437 C 15,15.68087 14.703318,16 14.333984,16 H 7.6660152 c -0.369333,0 -0.666015,-0.31913 -0.666015,-0.714844 V 10.761719 C 7.0000002,10.366005 7.2966822,10 7.6660152,10 h 0.333985 V 8.9160158 C 8.0000002,6.9993516 9.3999992,6.0000002 11,6.0000002 Z m 0,1 c -0.8,0 -1.9999998,0.5633376 -1.9999998,1.9160156 V 10 H 13 V 8.9160158 c 0,-1.3662 -1.2,-1.9160156 -2,-1.9160156 z"/>
 </g>
 <g id="plasmavault">
  <rect style="opacity:0.001" width="32" height="32" x="0" y="0"/>
  <path style="fill:currentColor" class="ColorScheme-Text" d="M 4 3 C 4 3 2 3 2 5 L 2 27 C 2 27 2 29 4 29 L 28 29 C 28 29 30 29 30 27 L 30 9 C 30 7 28 7 28 7 L 18 7 L 14 3 L 4 3 z M 16 9 C 18.77 9 21 11.23 21 14 L 21 16 L 22 16 C 22.554 16 23 16.446 23 17 L 23 25 C 23 25.554 22.554 26 22 26 L 10 26 C 9.446 26 9 25.554 9 25 L 9 17 C 9 16.446 9.446 16 10 16 L 11 16 L 11 14 C 11 11.23 13.23 9 16 9 z M 16 11 C 14.338 11 13 12.338 13 14 L 13 16 L 19 16 L 19 14 C 19 12.338 17.662 11 16 11 z"/>
 </g>
</svg>

<?xml version="1.0" encoding="UTF-8"?>
<svg width="32" height="32" version="1.1" xmlns="http://www.w3.org/2000/svg">
 <defs id="materia">
  <style id="current-color-scheme" type="text/css">.ColorScheme-Background {color:#181818; } .ColorScheme-ButtonBackground { color:#343434; } .ColorScheme-Highlight { color:#4285f4; } .ColorScheme-Text { color:#dfdfdf; } .ColorScheme-ViewBackground { color:#242424; } .ColorScheme-NegativeText { color:#f44336; } .ColorScheme-PositiveText { color:#4caf50; } .ColorScheme-NeutralText { color:#ff9800; }</style>
 </defs>
 <g id="22-22-plasmavault" transform="translate(32,10)">
  <rect width="22" height="22" opacity=".001"/>
  <path class="ColorScheme-Text" d="m4.1426 3s-1.1426 0.04269-1.1426 1.1855v12.672s-2.79e-4 1.1426 1.1426 1.1426h13.715s1.1426 2.79e-4 1.1426-1.1426v-10.686c0-1.1429-1.1426-1.1719-1.1426-1.1719h-5.7148l-2.2852-2zm6.8574 3c1.6 0 3 0.99935 3 2.916v1.084h0.33398c0.32322 0 0.66602 0.366 0.66602 0.76172v4.5234c0 0.39571-0.29668 0.71484-0.66602 0.71484h-6.668c-0.36933 0-0.66602-0.31913-0.66602-0.71484v-4.5234c0-0.39571 0.29668-0.76172 0.66602-0.76172h0.33398v-1.084c0-1.9167 1.4-2.916 3-2.916zm0 1c-0.8 0-2 0.56334-2 1.916v1.084h4v-1.084c0-1.3662-1.2-1.916-2-1.916z" fill="currentColor"/>
 </g>
 <g id="plasmavault">
  <rect width="32" height="32" opacity=".001"/>
  <path class="ColorScheme-Text" d="m4 3s-2 0-2 2v22s0 2 2 2h24s2 0 2-2v-18c0-2-2-2-2-2h-10l-4-4h-10zm12 6c2.77 0 5 2.23 5 5v2h1c0.554 0 1 0.446 1 1v8c0 0.554-0.446 1-1 1h-12c-0.554 0-1-0.446-1-1v-8c0-0.554 0.446-1 1-1h1v-2c0-2.77 2.23-5 5-5zm0 2c-1.662 0-3 1.338-3 3v2h6v-2c0-1.662-1.338-3-3-3z" fill="currentColor"/>
 </g>
</svg>
